X:1
T:Salve Regina
T:per soprano con accomp. di 2 violoni, cembalo e basso
C:G.B. Pergolesi
M:C
L:1/8
%%header "Salve Regina		$P / 10"
%%newpage 1
%%staves {1 2 3 4}
K:Am
V:1 dyn=down name="No 1"
Q:"Largo"
!pp!z4(bd')(c'b)|(c'/b/a)z2x4|(df)(ed) (e/d/c) x2|
V:2 stem=down
a4-a3^g|a/^g/ax2c4-|c3B c/B/c z/('[ce]/[ec']/[ce]/)|
V:3
x8|x8|x8|
V:4
(A,B,C)A, DB,EE,|A,3/A,/ =G,/F,/E,/D,/ (C,D,E,)C,|G,D,G,G,, C,C,A,(A,|
V:1
([ce][Bd]) z/([Bd]/[db]/[Bd]/) ([Bd][Ac]) z/([Ac]/[ca]/[Ac]/)|([Ac][^GB]) ([GB]/[Ac]/)([Ac]/[Bd]/)[Bd]2([Bd]/[ce]/)([ce]/[df]/)|f2^g2x4|z(!>(!fdB) x4!>)!|
V:2
x3!cresc!x3!unpoco!x2|x2!p!x6|!<(!df3!<)![ea]('ecA)|!f!F2z2[CA]2[B,^G]2|
V:3
x8|x8|x2B,2[A,E]2x2|x8|
V:4
B,)(B,^G,)(G, A,)(A,^D,)D,|E,Ez2E,E,,z2|=D,D,D,D,C,2z2|D,2z2E,2E,,2|
%%staves s | {1 2 3 4}
V:s
"^SOPRANO"z8|z8|A4(Bd) (cB)|(c/B/) Az2c4|
w:Sal-ve* Re -gi -na sal-
V:1
z(A^GA) z(ecA)|z(fBd) [Ac]2[^GB]2|A2z2(Bd)(cB)|(c/B/A)x6|
V:2
!<(!x4!<)!E2z2|F2!>(!z2x4!>)!|!p!A4-A3^G|A/^G/Az2c4-|
V:3
x8|x8|x8|x8|
V:4
[F,A,C]2z2C,2z2|D,2z2E,2E,,2|(A,,B,,C,)A,, D,B,,E,E,,|A,,3/A,/ G,/F,/E,/D,/ (C,D,E,)C,|
V:s
(df) (ed) (e/d/) cz2|(e2ge){/e}d2(gd)|{/d}c4B2z2|
w:ve_ Re -gi -na, sal --ve Re -gi-na
V:1
(df)(ed) (e/d/c)z2|z[Ge][Ge][Ge] [Gd][Gd][Gd][Gd]|[Gc][Gc][^Fc][Fc] ([GB]/[Ac]/)([Ac]/[Bd]/) ([Bd]/[ce]/)([ce]/[df]/)|
V:2
c3B c/B/cx2|x!<(!x3x2!<)!x2|!>(!x4!>)!x4|
V:3
x8|x8|x8|
V:4
F,D,G,G,, C,D,E,C,|zC,C,C, B,,B,,B,,B,,|A,,A,,D,D,G,,2G,2|
V:s
f4e4|d4c4|a2g f(e2d2)|c2z2z4|
w:sal-ve sal-ve sal-ve Re-gi -na
V:1
f4e4|d4g3e|(a2gf!>(!e2)d2!>)!|([ce]/[df]/)([df]/[eg]/)[eg]2([Bd]/[ce]/)([ce]/[df]/)[df]2|
V:2
d6c2-|c2B2!<(!c4!<)!|c6B2|!mf!x4x2zG|
V:3
x8|x8|x4x4|x8|
V:4
zDB,G, CC,E,C,|F,D,G,F, E,(D,E,C,)|F,(F,E,F, G,)G,G,,G,,|C,2zG,G,,2z2|
% (2)
V:s
z8|e2c cd2e2|(f2_e2d3)d|c2z2d4|
w:Ma-ter mi-se-ri-cor---di-ae vi-
V:1
(e/b/)(b/c'/) (c'/^g/)(a/g/) (a/=g/f/e/)d2|c2z2[Fd]2[Ge][Ge]|(.f.f._e.e) (.d.d.d.d)|c2x2(.d.d.d.d)|
V:2
cfgc cA BG/F/|E2x6|cccc _BBBB|Accc cc_BB|
V:3
x8|x8|z2F2F2[I:staff 2]G2|[I:staff 3]x2z2F4|
V:4
C,D,E,(E, F,)(F,G,)G,,|C,2C4_B,B,|A,A,A,A, _B,B,E,E,|F,F,F,F, F,F,F,F,|
V:s
c4_B4|A6G2|_B2(AG)G2F2|c2(=BA)A2^G2|
w:ta dul-ce-do et spes* no-stra, et spes* no-stra,
V:1
(.c.c.c.c) (._B.B.B.B)|(.A.A.A.A) (.A.A.G.G)|_B2z[EG] (.[A,G].[A,G].[A,F].[A,F])|[Ac]2z[^FA] (.[=B,A].[B,A].[B,^G].[B,G])|
V:2
_BBAA AAGG|FFFF FFEE|E2x6|x8|
V:3
_E4D2=E2|F2D2C2_B,A,|G,2x6|x8|
V:4
F,F,F,F, F,F,F,F,|F,F,=B,,B,, C,C,C,C,|^C,2zC, D,D,D,D,|^D,2zD, E,E,E,,E,,|
V:s
e4^d4|=d4^c4|=c2(BA)=G2e2|^F4G2z2|
w:sal-ve, sal-ve, et spes* no-stra sal-ve,
V:1
z(.[^Ge].[Ge].[Ge]) (.[A^d].[Ad].[Ad].[Ad])|(.[B=d].[Bd].[Bd].[Bd]) (.[E^c].[Ec].[Ec].[Ec])|(.[^F=c].[Fc].[FB].[FB]) (.[B,=G].[EG].[EG].[EG])|(.[E^F].[EF].[^DF].[DF]) E(bge)|
V:2
!p!x4!cresc!x4|x8|x4x!rall!x2!>(!x|!>)!C2B,2!atempo!G,2z2|
V:3
z2B,6|E8|A,2B,6|x8|
V:4
zE,E,E, ^F,F,F,F,|^G,G,G,G, A,A,A,A,|^D,D,D,D, E,E,G,,G,,|A,,A,,B,,B,,E,2z2|
V:s
^G4A2z2|d4c2z2|e2A2f2d2|(c2B2)A2z2|
w:sal-ve, sal-ve, et spes no-stra sal--ve
V:1
z(b^ge) z(ecA)|z(bBd) z(ecA)|z(ecA) z(fdB)|[Ac]2[^GB]2z(AGA)|
V:2
x8|x4!<(!x4|!<)!x8|!>(!x4!>)!x!pp!x3|
V:3
x8|([D=F]4[CE]2)x2|x8|x8|
V:4
[D,^G,B,]2z2[C,A,]2z2|^G,2z2A,2z2|[C,A,]2z2[D,A,B,]2z2|E,2E,,2[F,A,C]2z2|
V:s
!tratt!e2A2f2^G2|A4-A3/B/TB2|A2z2z4|Hz8||[M:3/8]
w:et spes no-stra sal----ve.
V:1
z(ecA) z(f^GB)|z!tenuto!F!tenuto!E!tenuto!^DE4|z(ecA) z(fBd)|[Ac]2[^GB]2AEHC2||[M:3/8]
V:2
E2!<(!z2F2E2|x!<)!x3z2!>(![B,^G]2|!>)!E2!pp!z2!<(!F2!<)!z2|!>(!x2x4!>)!x2||[M:3/8]
V:3
x8|x8|x8|x8||[M:3/8]
V:4
C,2z2D,2E,2|zF,E,^D,E,4|C,2z2D,2z2|E,2E,,2A,,2Hz2||[M:3/8]
% (3)
T:
%%staves {1 3}
V:1 name="No 2"
Q:"Allegretto"
!mf!ceg|(Lc/B/c)z|(Ld/c/d)z|(e/d/c/)d/e/^f/|g(G/B/d/g/)|e(G/B/d/=f/)|e/(e/g/)(g/c/)(!>(!c/|d/)(d/f/)(f/B/)!>)!B/|
V:3
C,,2z|.C,.E,.C,|.B,,.G,,.B,,|C,A,,A,,|G,,B,G,|CB,G,|CE,E,|F,F,G,|
%%staves s | {(1 2) 3}
V:s
c e g|(c/B/c2|d/c/d2|e/d/c/d/e/^f/|g) Gz|g e c |(d/e/=f/g/ a-|
w:Ad te cla-ma-------------mus ad te cla-ma-----
V:1
[EGc]2z|z[Gc][Ge]|zdf|(e/d/c/)d/e/^f/|g[Bd]/[Bd]/[Bd]/[Bd]/|[Gc]2z|[Ad][Ad][Ad]|
V:2 stem=auto
x3|!p!x3|F/E/Fz|ccc|x!>(!x2|!>)!x3|!<(!x3!<)!|
V:3
C,2z|C,E,C,|B,,G,,B,|C,A,,A,,|G,,G,=F,|E,2z|F,F,F,|
V:s
a/g/^f/e/d/c/|{/c}B3/G/B/d/|{/d}c3/G/c/e/|{/e}d3/G/d/=f/|e/d/c/B/A/G/|d) Dz|
w:-------------------------mus
V:1
[Ad][Ad][Ad]|[DB][DB][DB]|[Gc][Gc][Gc]|[Gd][Gd][Gd]|(e/d/c/)B/A/G/|([Ad]/[^FA]/[d^f]/[Ad]/)[fa]|
V:2
!>(!x3!>)!|!<(!x3!<)!|!>(!x3!>)!|!<(!x3!<)!|!>(!GGE!>)!|x3|
V:3
^F,F,F,|G,G,=F,|E,E,E,|B,,B,,B,,|C,C,^C,|D,D,D,|
V:s
A B c|B3/ c/ d|e2c|('(3B/A/G/PA2)|G2z|z3|z3|
w:cla-ma-mus e-xu-les fi-lii E ---vae
V:1
([^FA][GB][Ac])|([GB]3/[Ac]/[Bd])|e2c|((3B/A/G/ A)^F|(!f!Lg/^f/g)z|(La/g/a)z|([gb]/[^fa]/[eg]/)[df]/[ce]/[Bd]/|
V:2
x3|x3|!<(!GGG-!<)!|G2x|[I:staff 3]G,.B,.G,|[I:staff 2]x3|x3|
V:3
D,D,D,|G,G,G,|C,C,C,|D,2D,,|G,,2z|.^F,.D,.F,|G,2G,|
V:s
z3|G B d|(G/^F/G2|A/G/A2|B) Gz|c e g|(c/B/c2|d/c/d2|
w:Ad te cla-ma-------mus Ad te cla-ma------
V:1 dyn=up
((3[ce]/[Bd]/[Ac]/ [GB])!tenuto![^FA]|G2z|z[DG][GB]|z[^FA][Ac]|B[Bd]/[Bd]/[Bd]/[Bd]/|!atempo![ce]2z|z[Gc][Ge]|z[Bd][df]|
V:2
!>(!x3|!>)!x3|!p!x3|x3!rall!|!<(!x3!<)!|x3|x3|x3|
V:3
C,D,D,,|G,,2z|G,B,G,|^F,D,F,|G,G,/=F,/E,/D,/|C,2z|C,E,C,|B,,G,,B,,|
% (4)
V:s
e) cz|(g/e/) (c_B|A^cd-|d/e/d=c|B^de-|e/f/e=d|c3/G/c/e/|d3/G/d/f/|
w:-mus cla-ma-------------------------
V:1
[ce]c/(c/e/)(e/|g)gg|!tenuto![Ac]!tenuto![A^c]!tenuto![Ad]|[Ad][Ad][Ad]|!tenuto![Bd]!tenuto![B^d]!tenuto![Be]|[Be][Be][Be]|!tenuto![ce]!tenuto![cg]!tenuto![cg]|[dg][dg][dg]|
V:2
z[EG][Gc]|cG_B|!<(!x3!<)!|!>(!x3!>)!|!<(!x3!<)!|!>(!x3!>)!|!<(!x3!<)!|!>(!x3!>)!|
V:3
C,CG,|E,2E,|F,F,F,|^F,F,F,|G,G,G,|^G,G,G,|A,E,E,|B,,B,,B,,|
V:s
efg|AB) c|d3/ e/ f|(ea) f|((3e/d/c/Td2)|c2z|z3|z3||[M:C]
w:-----mus e-xu-les fi -lii E ---vae.
V:1
(efg)|(ABc)|([Bd]3/[ce]/[df])|(eaf)|((3e/d/c/Td2)|c/(c/e/)(e/g/)(g/|[Ad]/)([Ad]/[fa]/)([fa]/[df]/)[df]/|((3e/d/c/Td2)||[M:C]
V:2
!<(!G3!<)!|x3|x3|!rall!ccc-|!>(!c2B!>)!|!mf!!<(!x3!<)!|x3/!>(!x3/|x2!>)!B||[M:C]
V:3
(C,D,E,)|(F,G,A,)|G,G,G,|C,F,D,|G,2G,,|(.E,.E,.E,)|(.F,.F,.F,)|G,2G,,||[M:C]
%
T:
V:s
Q:"Larghetto"
z8|z4z2zB|(cg)z2(eg) zd|(eg) z(c df) z(B|
w:Ad te* su -spi-ra -----
V:1 name="No 3"
(c[eg]) z[Bd] ([ce][eg]) z[Bd]|([ce][eg]) zc (df) zB|(cg) z[Bd] ([ce][eg]) z[Bd]|([ce][eg]) zc (df) z[DB]|
V:2
!pp!x3!>(!x3!>)!x!>(!x|x2!>)!xBA2zF|Ee x2x4|x3BA2x2|
V:3
C,z LB,G, C,z LB,G,|C,zE,z F,zG,z|C,z B,G, C,z B,G,|C,zE,z F,zG,z|
V:s
c/B/) c ze(e3d)|{/d}^c3g f d z f|(f3d)B3f|_e cz2c2c2|
w:--mus ge-men -tes et flen-tes ge-men -tes et flen-tes in hac
V:1 dyn=down
([Ec][Ge])(.[Ge].[Ge] .[Ge].[Ge].[Ge].[de])|([^ce].[ce].[ce][cg]) ([df].[Af].[Af][Af])|(!<(![Af].[Af].[Af]!<)![Af]) ([df].[df].[Bf][Bf])|(!>(![G_e].[Ge]!>)!.[Ge][Ge]) ([Ge]!cresc!.[ce].[ce][ce])|
V:2
x4!p!x!<(!x3!<)!|x3!>(!x3!>)!x2|[I:staff 3]z2D6|_E2z2[I:staff 2]G4|
V:3
C,C,C,C, C,C,_B,,B,,|A,,A,,A,,A,, D,D,D,D,|D,D,F,F, G,G,G,G,|C,C,C,C, CC_B,B,|
V:s
c3c_e3c|_B4A2z2|A3d{/c}(=B3f|e3_B{/B}A3_e|
w:la-cri-ma-rum val-le la-cri-ma -----
V:1
(.[c_e].[ce].[ce].[ce]) (.[ce].[ce].[ce].[ce])|([_Bd].[GB].[GB][GB]) [^FA]!tenuto![Ad]!tenuto![d^f]!tenuto![fa]|z(.[Ad].[Ad].[Ad]) z(.[=B=f].[Bf].[Bf])|z(.[_Be].[Be].[Be]) z(.[A_e].[Ae].[Ae])|
V:2
!molto!^F2G2!>(!A4!>)!!<(!|x3/!<)!!>(!x/x2!>)!x4|x8|x8|
V:3
=A,A,G,G, ^F,F,F,F,|G,G,^C,C,D,4|z^F,F,F, zG,G,G,|zC,C,C, z=F,F,F,|
% (5)
V:s
{_e}d6)d2|(A2=e2)d2z2|z8|Hz8||[M:3/8][K:F]
w:-rum val -le.
V:1
(.[Fd].[Fd].[Fd].[Fd]) (.[Ed].[Ed].[Ed].[Ed])|(d2^c2)d/(a/f/d/) z/(f/d/A/)|z/(d/_B/G/) z/(B/G/E/) ([DF]/E/D)E2|D2z2Hz4||[M:3/8][K:F]
V:2
!<(!x4!<)!x4|!>(!=E4x3x/!>)!x/|!<(!x4!<)!x/!>(!x3/^C2!>)!|x8||[M:3/8][K:F]
V:3
_B,B,A,A, G,G,^G,G,|A,2A,,2D,zD,z|G,zG,zA,2A,,2|D,2z2Hz4||[M:3/8][K:F]
%
T:
K:F
%%staves {(1 2) 3}
V:1 name="No 4"
Q:"Allegretto"
f3|c3|AGF|def|cBA|{/(c}B3)|A2z|
V:2
!f!AcA|GFE|C2z|F3-|F2A|G3|!>(!F2x!>)!|
V:3
F,A,F,|E,D,C,|F,G,A,|B,CB,|A,G,F,|G,E,C,|F,G,A,|
V:1
z/(d/^c/d/f/a/)|(g/=B/){/B}c2|z/(_B/A/!cresc!B/d/f/)|(e/^G/){/B}A2|z/(G/^F/G/_B/d/)|(c/=E/) Ff-|
V:2
!p!A3|dG2|F3|=BE2|D2G|GF2|
V:3
F,.F,.F,|(LF,E,)E,|D,.D,.D,|(LD,C,)C,|_B,,B,,B,,|(LB,,A,,)A,,|
%%staves s | {(1 2) 3}
V:s
z3|z3|z3|z3|f3|c3|
w:E-ja
V:1
(f/e/g/e/)(c/B/)|((3A/B/c/) c3/d//_e//|((3d/c/B/) A!tenuto!G|F/C/C/B,/ A,|f3|c3|
V:2
B2G|A2F-|F2E|!>(!x3!>)!|!p!AcA|GFE|
V:3
G,,C,E,|F,F,A,|B,CC,|F,,2z|F,A,F,|E,D,C,|
V:s
(AG) F|(de) f|(cB) A|{/c}B3|A2z|d2a|(g/=B/){B}c2|
w:er -go ad -vo-ca -ta no-stra il-los tu -os
V:1
[CA][GB][Fc]|def|cBA|{/c}B3|([FA]/[Ac]/[Bd]/[Ac]/)f|z/(d/^c/d/f/a/)|(g/=B/)c2|
V:2
x2!<(!x|x2!<)!x|x3|G3!>(!|x3!>)!|A3|dG2|
V:3
F,G,A,|B,B,B,|A,G,F,|G,E,C,|F,F,F,|F,2F,|(LF,E,)E,|
% (6)
V:s
_B2f|(e/^G/){/G}A2|(G2d)|c2f|(f/=e/)B2|{/B}A2A|
w:il-los tu -os mi -se-ri-cor -des o-cu-
V:1
z/(_B/A/B/d/f/)|(e/^G/)A2|z/(G/^F/G/_B/d/)|(.c.c.c)|(.B.B.B)|(.A.A.A)|
V:2
F3|=BE2|D2G-|GFF-|FEE|EFF|
V:3
D,2D,|L(D,C,)C,|_B,,2B,,|A,,A,,A,,|G,,C,C,|C,=B,,B,,|
V:s
G2z|G G c|(c=Bd-|dc_e-|ed) f|_e2e|d2z|
w:los mi-se-ri-cor -------des o-cu-los
V:1
[EG][Gc][ce]|z[EG][Ec]-|[Ec][D=B][Fd]-|[Fd][_Ec][c_e]-|[ce][=Bd]([df]|[c_e])!tenuto![ce]!tenuto![ce]|[=Bd]2z|
V:2
!>(!x3!>)!|!p!x3|x3|x3|x3|x3|x3|
V:3
C,C,C,|C,,2z|(G,,3|G,3)|(G,,3|G,)!tenuto!^F,,!tenuto!F,,|G,,2z|
V:s
G3|G3|(Gf_e)|_e dz|g3|d3|d3|
w:ad nos con --ver-te ad nos con-
V:1
[D=B]3|([Gc][=Bd][c_e])|([Gd][df])[c_e]|(L[c_e][=Bd])z|(.[cg].[cg].[cg])|(.[cd].[cd].[cd])|(.[cd].[cd].[cd])|
V:2
x3|x3|x3|x3|x3|x3|x3|
V:3
zG,=F,|(_E,D,C,)|=B,,2C,|.G,.G,,G,|_E,E,E,|F,F,F,|^F,F,F,|
V:s
(d2_e|fg_a|=B) cz|(_A2=B)|(c_a) f|((3_e/d/c/)Pd2|c2z|
w:ver -----te ad_ nos_ con-ver ---te.
V:1
([=Bd]2[c_e])|(fg_a)|(_ag)z|(_A2=B)|(c2f)|_ed2|c!f!c'c'|
V:2
x3|c3|=Bcx|FA2|G_Ac-|c2=B|c2x|
V:3
G,G,C,|(_A,G,F,)|(LF,=E,)z|zF,F,|(_E,F,_A,)|(G,2G,,)|C,C_B,|
%%staves {1 (2 3)}
V:1
.c'/(b/a/g/f/_e/|d).f.f|.f/(_e/d/c/B/_A/|G).g.g|.g/(f/=e/d/c/B/|A/)(c/B/A/G/F/|[Ec]2)z|
V:2
F3-|F_E2|B,3-|B,zz|C3-|Czz|x3|
V:3
A,A,A,|B,B,B,|D,D,D,|_E,E,E,|=E,E,E,|F,D,B,,|C,2z|
% (7)
%%staves s | {1 2 3}
V:s
c3|(B/A/)B2|(Bg) B|(A/G/)A2|(Af) c|A2A|A Gz|
w:Et Je -sum be -ne-di -ctum fru -ctum ven-tris tu-i
V:1
z/(c/e/c/g)|z/([GB]/[Be]/[GB]/[ce])|(!tenuto![GB]!tenuto![GB]!tenuto![GB])|z/([FA]/[Ac]/[FA]/[Af])|(!tenuto![FA]!tenuto![FA]!tenuto![FA])|(!tenuto![FA]!tenuto![FA]!tenuto![FA])|([FA][EG])z|
V:2
x3|x3|x3|x3|x3|x3|x3|
V:3
(C,,3|C,3)|(C,,3|C,3)|C,,3|C,!tenuto!=B,,!tenuto!B,,|C,(C,_B,,)|
V:s
(f3|_e3)|d2d|g3|f3|e/ d/c2|c3|
w:no -bis post hoc e-xi-li-um post
V:1
([c-f]3|[c_e]3)|([Fd]/[DB]/)([DB]/[Fd]/)[Bd]|([d-g]3|[df]3)|([Ge]/[Ec]/)([Ec]/[Ge]/)[ce]|z/(.[Ec]/.[Ec]/.[Ec]/.[Ec]/.[Ec]/)|
V:2
F,3-|F,3-|F,zz|G,3-|G,3|G,zz|x3|
V:3
A,,A,,A,,|A,,A,,A,,|B,,B,,B,,|=B,,B,,B,,|B,,B,,B,,|C,C,C,|C3|
V:s
d3|=e3|f (e/d/) c/ =B/|(c/=B/)c2|_B3|A B c|
w:hoc e-xi-li -um o-sten -de e-xi-li-um
V:1
(.[Fd]/.[Fd]/.[Fd]/.[Fd]/.[Fd]/.[Fd]/)|(.[Ge]/.[Ge]/.[Ge]/.[Ge]/.[Ge]/.[Ge]/)|[cf]([Ae]/d/[Fc]/=B/)|([Ec]/[ce]/)([eg]/[ce]/)[gc']|_b3|(abc')|
V:2
x3|x3|x3|x3|[I:staff 2]zfg|c3|
V:3
C,3|B,2B,,|A,,F,,G,,|C,C,C,|zD,E,|(F,G,A,)|
V:s
(d/B/)G2|F2z|f d =B|c/ =B/c2|_B3|(ABc|
w:o -sten-de post hoc e-xi-li-um o-sten --
V:1
(d'/b/)g2|(f/c/){/B}A2|[=Bf]3|([ce]/[eg]/)([eg]/[gc']/)[gc']|_B3|(ABc)|
V:2
f2e|x3|x3|x3|zFG|zFF|
V:3
B,CC,|F,,2z|D,3|C,C,C,|zD,E,|(F,G,A,)|
V:s
def|d/B/{/A}G2)|F2z|z3|z3|z3|Hz3||[K:Am][M:C]
w:------de.
V:1
(de)!tenuto!f|((3A/G/F/)G2|f3|c3|(A/c/F/A/)(c/_e/)|((3d/c/B/) (AG)|HF3||[K:Am][M:C]
V:2
FBc|F2E|!f!zcA|GFE|C2F|F2E&DCB,|A,3||[K:Am][M:C]
V:3
B,G,A,|(B,C)C,|F,,A,,F,,|E,,D,,C,,|F,,A,,F,,|B,,C,C,,|HF,,3||[K:Am][M:C]
% (8)
T:
K:Am
V:s
Q:"Largo"
z8|z8|z8|
V:1 name="No 5"
([Ac]/[ce]/)([ce]/[ea]/) [ea][Ac] (L[Ac][^GB]) ([B^g]/[gb]/)([gb]/[Bd]/)|(L[Bd][Ac]) z/(e/c/A/) z/(f/d/_B/) [CA][B,^G]|z/(A/^G/A/) z/(e/c/A/) z/[FA]/[DF]/[B,D]/ [A,C][^G,B,]|
V:2
!pp!!<(!x3!<)!x!>(!x!>)!x!<(!x2!<)!|!>(!x!>)!x7|[I:staff 3]!<(![A,C]2[I:staff 2]!<)!E2!>(!x4!>)!|
V:3
A,A,A,A, E,E,E,E,|A,A,, C,z D,z E,E,|F,zC,z D,D,E,E,,|
V:s
z2!pp!zc Lc B zd|Ld c ze (^c_ba) c|(d/^c/) d zd (=Bag) B|
w:O cle-mens o pi-a o dul --cis Vir -go o dul --cis
V:1
A,/[Ac]/([Ac]/[ce]/) [ca][Ac] (L[Ac][^GB]) ([B^g]/[gb]/)([gb]/[Bd]/)|(L[Bd][Ac]) ([Ac]/[ce]/)([ce]/[ea]/) ([^ce][c_b][da])c|([Ad]/[df]/)([df]/[fa]/)a2(dag)B|
V:2
!<(!x3!<)!x!>(!x!>)!x!<(!x2!<)!|!>(!x3!>)!x4G|x2fd B(Bc)F|
V:3
(A,,A,)(A,A,,) (E,E)(EE,)|A,A,A,(A, G,)(G,F,)E,|F,F,F,F, (G,F,E,)D,|
V:s
(c/B/) c zcd2d2|(d/c/) d zd (_e/d/) e z^f|g G=f2(eg/e/)c2-|
w:Vir -go o dul-cis Vir -go o dul -cis o cle-mens o dul --cis
V:1
c/e/e/g/g2(!cresc!.[cd].[cd].[cd].[cd])|(.[Bd].[Bd].[Bd].[Bd]) (.[c_e].[ce].[c^f].[cf])|(gG)=f2(eg/e/)c2-|
V:2
(G/c/)(c/e/) ecx4|x4!pp!x4|B(Bcd)G2zG|
V:3
E,E,E,E, (.F,.F,.^F,.F,)|(.G,.G,.G,.G,) (.G,.G,.G,.G,)|.G,(G,A,B,)C2zE,|
V:s
c a g f (e2Td2)|c2z2z4|z8|
w:_Vir-go Ma-ri -a.
V:1
c(agf) (.e.e)(.d.d)|c/[ce]/([ce]/[ec']/) [ec'][ce] (L[ce][Bd]) ([db]/[bd']/)([bd']/[df]/)|(L[df][ce]) z/(g/e/c/) z/(a/f/d/) [ce][Bd]|
V:2
Ac2Ac2=B2|!<(!x3!<)!x!>(!x2!>)!!<(!x2!<)!|!>(!x!>)!x7|
V:3
F,(F,E,F,) G,G,G,,G,,|(C,C)(CC,) (G,G)(GG,)|(CC,) E,z F,F, G,G,,|
% (9)
V:s
z2z!pp!e Le d zd|Ld c zB c B c2|B2ze (f/e/) f zf|
w:O cle-mens o pi-a o dul-cis Vir-go o cle -mens o
V:1
c/[ce]/([ce]/[ec']/) [ec'][ce] (L[ce][Bd]) ([Bd]/[db]/)([db]/[Bd]/)|(L[Bd][Ac]) ([ca][^GB]) ([Ac][GB][Ac])[Ac]|([^GB][B^g]a)e f!tenuto!f!tenuto!f!tenuto!f|
V:2
!<(!x3!<)!x!>(!x!>)!x!<(!x2!<)!|!>(!x!>)!x7|x2ze- e(d/^c/) dd-|
V:3
(C,,C,)C,C, G,G,^G,G,|A,A, zE, E,E,E,^D,|E,E,C,C, (D,DB,)G,|
V:s
(e/d/) e ze (d/c/) dz2|c4B2z2|A4A f e d|
w:pi -a o dul -cis Sal-ve Sal-ve Vir-go Ma-
V:1
e!tenuto!e!tenuto!e!tenuto!e d!tenuto!d!tenuto!d!tenuto!d|c!tenuto!c!tenuto!c!tenuto!c BBBB|E[Ae][Ae][Ae] [Af][Af][Ae][FAd]|
V:2
d(c/B/) cc- c(B/A/) BB-|B(A/^G/)AA !p!!<(!^GGGG|x4!<)!x4|
V:3
(C,CA,)F, (B,,B,^G,)E,|A,,A,^D,D, E,E,=D,D,|C,C,C,C, D,D,C,D,|
V:s
(c2B2)A2z2|z(_BA^G)A2z2|(A4-A/^G/A/=B/(TB2{A)B)}|
w:ri -a Sal --ve Sal -----
V:1
[Ac][Ac][^GB][GB] AL[ca] z/(e/c/A/)|z/(f/d/_B/) (A^G) z/(A/G/A/) z/(e/c/A/)|z/(f/d/A/) z/(!tenuto!F/!tenuto!E/!tenuto!^D/)E4|
V:2
E2D2[I:staff 3][A,C]2[I: staff 2]E2|F2C=B,[I:staff 3][A,C]2[I: staff 2]E2|F2x6|
V:3
E,E,E,,E,, F,zC,z|D,D,E,E,, F,zC,z|D,z z/(!tenuto!F,/!tenuto!E,/!tenuto!^D,/)E,4|
V:s
A2z2z4|z8|Hz8||
w:ve!
V:1
A!tenuto!a z/(e/c/A/) z/(f/d/_B/) (A^G)|z/(A/^G/A/) z/(e/c/A/) z/([FA]/[DF]/[B,D]/) [A,C][^G,B,]|A,2z2Hz4||
V:2
[CE]2!dolce!E2!>(!F2C!>)!=B,|[I:staff 3][A,C]2[I:staff 2]!<(!E2!<)!x!rall!x2!>(!x|x2!>)!x6||
V:3
A,,zC,z D,z E,E,|F,zC,z D,D,E,E,,|A,,2z2Hz4||

